X:1
T:Det Første Bud
T:Det Første Bud
T:Ole Andersen Mærli, Sørum
C:Ole Andersen Mærli, Sørum
L:1/8
M:6/8
K:G
V:1 treble nm="Piano" snm="Pno."
V:1
 D |"Em" E2 E"G" D2 G | B2 A G2 B | d2 B G2 B |"D7" (A2 F)"G" G2 G | (G>A)B B2 G |"D" A2 B A2 A | %7
w: Kom|hid, o kjæ- re|Christ- en Lem, Jeg|vil saa kor- te-|li- * ge Paa|di- * ne Fin- gre|to Gang` fem Guds|
"B7" (B>A)F"Em" G2 G |"B7" F2 ^D"Em" E2 z |] %9
w: Bud * ved Sang ud-|si- * ge.|

